lib/brands/icons/contactless-payment.svg

<svg xmlns="http://www.w3.org/2000/svg" fill="none" aria-hidden="true" viewBox="0 0 48 48"><g id="contactless-payment-Icon"><path id="Vector" fill="black" d="M13.4896 20.7508C13.8729 20.6842 14.1396 20.8508 14.4896 21.4008C15.4896 23.0008 15.4896 25.0509 14.4896 26.6509C14.1229 27.2009 13.7229 27.4009 13.3062 27.2342C13.0896 27.1176 12.9229 26.9009 12.8396 26.6676C12.7562 26.4176 12.8229 26.2009 13.1062 25.7342C13.4729 25.1342 13.5729 24.8009 13.5729 24.0009C13.5729 23.2175 13.4729 22.8842 13.1062 22.2675C13.0062 22.1008 12.9062 21.9175 12.8229 21.7342C12.7062 21.3342 13.0396 20.8342 13.4896 20.7508V20.7508ZM16.0746 20.9196C15.6246 20.0029 15.6246 19.8196 16.0079 19.4696C16.1913 19.2862 16.2746 19.2529 16.5413 19.2529C16.9746 19.2529 17.2079 19.4696 17.6079 20.2863C18.2246 21.5529 18.4746 22.6363 18.4746 24.0363C18.4746 25.4696 18.2246 26.453 17.5746 27.7863C17.2079 28.5363 17.0246 28.7363 16.6413 28.7863C16.5079 28.803 16.3746 28.7863 16.2413 28.7363C15.9913 28.603 15.8079 28.3863 15.7413 28.103C15.6913 27.953 15.7579 27.7863 16.0413 27.203C17.0913 25.0696 17.1079 23.0029 16.0746 20.9196V20.9196ZM19.3752 30.3525C18.9918 30.2358 18.7085 29.7525 18.8252 29.3858C18.8418 29.3025 19.0252 28.9025 19.2252 28.5025C20.0585 26.8025 20.4085 24.9691 20.2419 23.1691C20.1085 21.6857 19.8419 20.7524 19.1752 19.4024C18.7252 18.4857 18.7085 18.3357 18.9585 17.969C19.2085 17.619 19.8252 17.569 20.1585 17.869C20.3752 18.069 21.0752 19.5357 21.3419 20.3524C22.2419 23.1024 22.0919 26.0691 20.9585 28.7191C20.3752 30.0858 19.9585 30.5192 19.3752 30.3525V30.3525ZM22.7088 31.9761C22.6088 31.9761 22.5088 31.9761 22.4254 31.9427C22.1588 31.8594 21.9088 31.5594 21.8588 31.2761C21.8254 31.0761 21.8588 30.9594 22.1254 30.4261C23.2254 28.3094 23.6921 26.376 23.6921 24.0093C23.6921 21.726 23.2754 19.9426 22.2421 17.8092C22.0088 17.3592 21.8254 16.9426 21.8254 16.8759C21.8254 16.6426 22.0088 16.3259 22.2254 16.1926C22.5088 16.0092 22.9754 16.0426 23.2088 16.2592C23.2921 16.3426 23.5088 16.7092 23.7088 17.0759C24.4421 18.5426 24.9588 20.1593 25.2088 21.8426C25.3755 22.876 25.4088 24.8427 25.2755 25.7927C25.0588 27.476 24.5755 29.1094 23.8421 30.6427C23.3921 31.5594 23.1088 31.9427 22.8754 31.9427C22.8254 31.9427 22.7588 31.9594 22.7088 31.9761V31.9761ZM34.117 31.0161C31.4837 33.5828 27.7169 35.2162 23.1669 35.7662C22.4335 35.8662 19.5835 35.8995 18.8002 35.8328C14.0335 35.4162 9.81673 33.6495 7.08337 30.9161C5.51668 29.3494 4.56667 27.6661 4.15 25.666C3.95 24.7494 3.95 23.2494 4.15 22.3327C4.75001 19.566 6.53336 17.1326 9.35006 15.2826C15.8001 11.0659 25.6503 11.0825 32.0337 15.3326C32.8837 15.8993 33.417 16.3493 34.1837 17.0993C35.1504 18.0493 35.8337 18.9993 36.5504 20.3993C36.5837 20.4493 36.717 20.516 36.8504 20.5493C37.3004 20.6327 37.9004 20.9993 38.3837 21.4493C38.7671 21.7993 39.0504 22.1827 39.7671 23.266C40.5004 24.366 43.7838 29.4328 43.9838 29.7661C44.0505 29.8828 43.9005 30.0994 43.7338 30.0994C43.6171 30.0994 43.5171 30.0161 43.3338 29.7328L41.4838 26.8494C38.3171 21.9327 38.1504 21.716 37.2671 21.266L36.8004 21.0327H35.4337C34.0837 21.0327 34.067 21.0327 34.0337 21.1827C33.867 21.966 33.8337 22.166 33.867 22.1993C33.9003 22.216 34.667 22.666 35.5837 23.166L37.2504 24.116L37.1504 24.3327C37.1004 24.4494 37.0337 24.5494 37.0004 24.5494C36.9837 24.5494 35.567 23.766 33.8837 22.816C32.1837 21.866 30.7003 21.066 30.5836 21.0327C30.1003 20.8993 29.3503 21.4327 29.3503 21.916C29.3503 22.3993 29.5003 22.5327 32.4837 24.9827C34.3337 26.4994 35.4004 27.4161 35.567 27.6327C35.8504 28.0161 36.1504 28.5994 36.4337 29.3161C36.917 30.5661 37.7004 31.2661 39.0004 31.5994L39.4171 31.6994L39.3837 31.9328C39.3671 32.0328 39.3504 32.1161 39.3171 32.1995C39.2671 32.2661 38.4171 31.9828 37.9171 31.7494C37.1337 31.3828 36.6004 30.8494 36.0837 29.9328C35.8504 29.9994 35.6337 30.0661 35.417 30.1494C34.7504 30.3994 34.7337 30.4161 34.117 31.0161V31.0161ZM31.762 28.6897C31.912 28.873 34.062 29.8897 34.312 29.9064C34.4287 29.9064 34.7954 29.8064 35.1287 29.6897C35.462 29.5564 35.762 29.4564 35.7787 29.423C35.7954 29.4064 35.7287 29.1897 35.6287 28.9397C35.4287 28.4397 35.462 28.4563 34.7454 28.5897C33.962 28.7397 33.512 28.6063 32.662 27.9897C32.4287 27.8063 32.1953 27.673 32.1287 27.673C32.062 27.673 31.9287 27.7563 31.8287 27.873C31.612 28.1063 31.5787 28.473 31.762 28.6897ZM35.087 27.865C35.037 27.7483 32.0703 25.2816 31.8203 25.1316C31.6036 25.015 31.437 25.0483 31.2536 25.2316C30.7369 25.7816 30.8036 25.8983 32.137 26.915C33.737 28.1483 33.9036 28.2317 34.787 28.0483C35.1037 27.9817 35.137 27.965 35.087 27.865ZM28.2891 18.1381C28.5558 18.0881 33.5891 18.9714 33.8391 19.1214C34.2392 19.3381 34.3558 19.7214 34.2392 20.2881L34.1892 20.5215H34.4558C34.6225 20.5215 34.9725 20.5048 35.2725 20.4881L35.7892 20.4381L35.5392 19.9548C34.7392 18.4881 33.3225 17.0214 31.5558 15.8381C30.7224 15.2881 28.9724 14.438 27.9224 14.0547C26.2724 13.488 24.5724 13.1047 22.839 12.9214C21.889 12.8214 19.3723 12.8214 18.439 12.938C16.2056 13.1714 14.1889 13.6714 12.4222 14.438C8.32218 16.1881 5.55548 19.0714 4.85548 22.3715C4.67214 23.2382 4.65547 24.7548 4.82214 25.5382C5.18881 27.2715 6.00549 28.7715 7.33884 30.1716C10.0389 33.0216 14.1723 34.755 19.1223 35.155C19.7723 35.205 22.6557 35.1383 23.3224 35.0383C25.4057 34.7716 27.0224 34.3549 28.7224 33.6549C30.5058 32.9383 32.1725 31.8883 33.3558 30.7716L33.8225 30.3382L32.6558 29.7716C31.4058 29.1882 31.2891 29.0882 31.1224 28.5549C31.0224 28.2215 31.1391 27.8549 31.4558 27.5215L31.7058 27.2549L31.1724 26.8382C30.7391 26.5215 30.6058 26.3715 30.5224 26.1549C30.3891 25.8215 30.4391 25.4215 30.6558 25.1382L30.8224 24.9048L29.1058 24.6048C28.4558 24.4882 27.8057 24.3715 27.1724 24.2382C26.9057 24.1548 26.6557 23.8715 26.5891 23.5715C26.5557 23.4215 27.3891 19.3381 27.5724 18.7548C27.7057 18.4548 27.9724 18.2214 28.2891 18.1381V18.1381ZM33.5539 20.9205C33.7706 19.8872 33.7872 19.6038 33.5706 19.5538C33.5206 19.5205 32.3372 19.3205 30.9539 19.0705C28.5038 18.6372 28.2372 18.6038 28.1205 18.8038C28.0538 18.9038 27.1205 23.2206 27.1205 23.4039C27.1205 23.5039 27.1705 23.6206 27.2205 23.6539C27.2872 23.7039 28.0705 23.8872 28.9872 24.0372C30.7705 24.3706 30.8205 24.3706 30.8205 24.3206C30.8205 24.3039 30.4872 24.0206 30.0705 23.6872C29.0538 22.8539 28.8372 22.5372 28.8372 21.9205C28.8372 21.4039 29.1872 20.9039 29.7372 20.6205C30.0705 20.4705 30.4372 20.4372 30.7872 20.5205C30.9705 20.5872 31.8539 21.0705 33.0872 21.7705L33.3372 21.9205L33.5539 20.9205Z"/></g></svg>

<svg xmlns="http://www.w3.org/2000/svg" fill="none" aria-hidden="true" viewBox="0 0 48 48"><path fill="#000" d="M13.49 20.75c.383-.066.65.1 1 .65 1 1.6 1 3.65 0 5.25-.367.55-.767.75-1.184.584a1.047 1.047 0 0 1-.466-.566c-.084-.25-.017-.467.266-.934.367-.6.467-.933.467-1.733 0-.784-.1-1.117-.467-1.734-.1-.166-.2-.35-.283-.533-.117-.4.217-.9.667-.983Zm2.585.17c-.45-.917-.45-1.1-.067-1.45.183-.184.267-.217.533-.217.434 0 .667.217 1.067 1.033.617 1.267.867 2.35.867 3.75 0 1.434-.25 2.417-.9 3.75-.367.75-.55.95-.934 1a.83.83 0 0 1-.4-.05.96.96 0 0 1-.5-.633c-.05-.15.017-.317.3-.9 1.05-2.133 1.067-4.2.034-6.283Zm3.3 9.432c-.383-.116-.666-.6-.55-.966.017-.084.2-.483.4-.883.833-1.7 1.183-3.534 1.017-5.334-.134-1.483-.4-2.417-1.067-3.767-.45-.916-.466-1.066-.216-1.433.25-.35.866-.4 1.2-.1.216.2.916 1.667 1.183 2.483.9 2.75.75 5.717-.383 8.367-.584 1.367-1 1.8-1.584 1.633Zm3.334 1.624c-.1 0-.2 0-.284-.033-.266-.084-.516-.384-.566-.667-.034-.2 0-.317.266-.85 1.1-2.117 1.567-4.05 1.567-6.417 0-2.283-.417-4.066-1.45-6.2-.233-.45-.417-.866-.417-.933 0-.233.184-.55.4-.683.284-.184.75-.15.984.066.083.084.3.45.5.817a15.921 15.921 0 0 1 1.5 4.767c.166 1.033.2 3 .067 3.95a15.947 15.947 0 0 1-1.434 4.85c-.45.916-.733 1.3-.967 1.3a.59.59 0 0 0-.166.033Zm11.408-.96c-2.633 2.567-6.4 4.2-10.95 4.75-.734.1-3.584.134-4.367.067-4.767-.417-8.983-2.183-11.717-4.917-1.566-1.567-2.516-3.25-2.933-5.25-.2-.917-.2-2.417 0-3.333.6-2.767 2.383-5.2 5.2-7.05 6.45-4.217 16.3-4.2 22.684.05.85.566 1.383 1.016 2.15 1.766.966.95 1.65 1.9 2.366 3.3.034.05.167.117.3.15.45.084 1.05.45 1.534.9.383.35.666.734 1.383 1.817.733 1.1 4.017 6.167 4.217 6.5.066.117-.084.333-.25.333-.117 0-.217-.083-.4-.366l-1.85-2.884c-3.167-4.916-3.334-5.133-4.217-5.583l-.467-.233h-1.366c-1.35 0-1.367 0-1.4.15-.167.783-.2.983-.167 1.016.033.017.8.467 1.717.967l1.666.95-.1.217c-.05.116-.116.216-.15.216-.016 0-1.433-.783-3.116-1.733-1.7-.95-3.184-1.75-3.3-1.783-.484-.134-1.234.4-1.234.883s.15.617 3.134 3.067c1.85 1.516 2.916 2.433 3.083 2.65.283.383.583.966.867 1.683.483 1.25 1.266 1.95 2.566 2.283l.417.1-.033.234c-.017.1-.034.183-.067.267-.05.066-.9-.217-1.4-.45-.783-.367-1.317-.9-1.833-1.817-.234.066-.45.133-.667.216-.667.25-.683.267-1.3.867Zm-2.355-2.326c.15.183 2.3 1.2 2.55 1.216.117 0 .483-.1.817-.216.333-.134.633-.234.65-.267.016-.017-.05-.233-.15-.483-.2-.5-.167-.484-.884-.35-.783.15-1.233.016-2.083-.6-.233-.184-.467-.317-.533-.317-.067 0-.2.083-.3.2-.217.233-.25.6-.067.817Zm3.325-.825c-.05-.117-3.017-2.583-3.267-2.733-.216-.117-.383-.084-.566.1-.517.55-.45.666.883 1.683 1.6 1.233 1.767 1.317 2.65 1.133.317-.066.35-.083.3-.183Zm-6.798-9.727c.267-.05 5.3.833 5.55.983.4.217.517.6.4 1.167l-.05.233h.267c.166 0 .516-.016.816-.033l.517-.05-.25-.483c-.8-1.467-2.217-2.934-3.983-4.117-.834-.55-2.584-1.4-3.634-1.783-1.65-.567-3.35-.95-5.083-1.134-.95-.1-3.467-.1-4.4.017-2.233.233-4.25.733-6.017 1.5-4.1 1.75-6.867 4.633-7.567 7.934-.183.866-.2 2.383-.033 3.166.367 1.733 1.183 3.233 2.517 4.634 2.7 2.85 6.833 4.583 11.783 4.983.65.05 3.534-.017 4.2-.117 2.084-.266 3.7-.683 5.4-1.383 1.784-.717 3.45-1.767 4.634-2.883l.466-.434-1.166-.566c-1.25-.584-1.367-.684-1.534-1.217-.1-.334.017-.7.334-1.034l.25-.266-.534-.417c-.433-.317-.566-.466-.65-.683a1.058 1.058 0 0 1 .134-1.017l.166-.233-1.716-.3c-.65-.117-1.3-.233-1.934-.367-.266-.083-.516-.366-.583-.666-.033-.15.8-4.234.983-4.817.134-.3.4-.534.717-.617Zm5.265 2.782c.217-1.033.233-1.316.017-1.366-.05-.034-1.234-.233-2.617-.483-2.45-.434-2.717-.467-2.834-.267-.066.1-1 4.417-1 4.6 0 .1.05.217.1.25.067.05.85.233 1.767.383 1.784.334 1.834.334 1.834.284 0-.017-.334-.3-.75-.634-1.017-.833-1.234-1.15-1.234-1.767 0-.516.35-1.016.9-1.3.334-.15.7-.183 1.05-.1.184.067 1.067.55 2.3 1.25l.25.15.217-1Z"/></svg>
